X:1
T:English Suite IV Courante
T:BWV 809
T:J. S. Bach
%%score { ( 1 4 5 ) | ( 2 3 ) }
L:1/8
Q:1/4=184
M:3/2
K:F
V:1 treble nm="Harp"
V:4 treble 
V:5 treble 
V:2 bass 
V:3 bass 
V:1
"^Presto" f | f3 c d3 f c2 c/4B/4c/4B/4A/B/ | Acde faga bagf | %3
 c'2 c2 d3 b a2 a/4g/4a/4g/4a/4g/4f/ | e/4d/4e/- e2 f g2 ab agfe | %5
 f/4e/4f/- f2 e d2 c=B c/4B/4c/- c2 d | =B/4A/4B/- B2 A G3 g fedc | %7
 a3 e f2 g/4f/4e/4f/4g e/4d/4e/4d/4e/4d/4e/4d/4 e/4d/4e/4d/4 c | c6- c4- c f | %9
 f3 c d3 f c2 c/4B/4c/4B/4A/B/ | Acde faga bagf | c'2 c2 d3 b a2 a/4g/4a/4g/4a/4g/4f/ | %12
 e/4d/4e/- e2 f g2 ab agfe | f/4e/4f/- f2 e d2 c=B c/4B/4c/- c2 d | =B/4A/4B/- B2 A G3 g fedc | %15
 a3 e f2 g/4f/4e/4f/4g e/4d/4e/4d/4e/4d/4e/4d/4 e/4d/4e/4d/4 c | c6- c4- c G | %17
 G3 c c/4B/4c/4B/4c/4B/4c/4B/4 c/4B/4c/4B/4A Bd c2 | B/4A/4B/4A/4cd_e fABg cede | %19
 _edcB e/4d/4e/4d/4e/4d/4e/4d/4 e/4d/4e/4d/4 e d/4c/4d/4c/4d/4c/4d/4c/4 d/4c/4d/4c/4 c | %20
 c/4B/4c/- c2 d B/4A/4B/- B2 A B/4A/4B/4A/4B/4A/4B/4A/4 B/4A/4B/4A/4 G | %21
 G6 g2 e/4d/4e/4d/4e/4d/4e/4d/4 e/4d/4e/4d/4 e | %22
 f/4e/4f/- f2 e d2 cB B/4A/4B/4A/4B/4A/4B/4A/4 B/4A/4B/4A/4 B | %23
 c3 B A2 GF c/4B/4c/4B/4c/4B/4c/4B/4 c/4B/4c/4B/4 c | d/4c/4d/- d2 c BAGB AGAF | %25
 E3 D C2 c2 f/4e/4f/- f2 g/a/ | a2 gf ed b2 f/4e/4f/4e/4f/4e/4f/4e/4 f/4e/4f/4e/4 f | %27
 B/4A/4B/- B2 c B/4A/4B/4A/4B/4A/4B/4A/4 B/4A/4B/4A/4 G A/4G/4A/4G/4A/4G/4A/4G/4 A/4G/4A/4G/4 F | %28
 F6- F4- FG | G3 c c/4B/4c/4B/4c/4B/4c/4B/4 c/4B/4c/4B/4A Bd c2 | B/4A/4B/4A/4cd_e fABg cede | %31
 _edcB e/4d/4e/4d/4e/4d/4e/4d/4 e/4d/4e/4d/4 e d/4c/4d/4c/4d/4c/4d/4c/4 d/4c/4d/4c/4 c | %32
 c/4B/4c/- c2 d B/4A/4B/- B2 A B/4A/4B/4A/4B/4A/4B/4A/4 B/4A/4B/4A/4 G | %33
 G6 g2 e/4d/4e/4d/4e/4d/4e/4d/4 e/4d/4e/4d/4 e | %34
 f/4e/4f/- f2 e d2 cB B/4A/4B/4A/4B/4A/4B/4A/4 B/4A/4B/4A/4 B | %35
 c3 B A2 GF c/4B/4c/4B/4c/4B/4c/4B/4 c/4B/4c/4B/4 c | d/4c/4d/- d2 c BAGB AGAF | %37
 E3 D C2 c2 f/4e/4f/- f2 g/a/ | a2 gf ed b2 f/4e/4f/4e/4f/4e/4f/4e/4 f/4e/4f/4e/4 f | %39
 B/4A/4B/- B2 c B/4A/4B/4A/4B/4A/4B/4A/4 B/4A/4B/4A/4 G A/4G/4A/4G/4A/4G/4A/4G/4 A/4G/4A/4G/4 F | %40
 F6- F4- F z |] %41
V:2
 z | z G, A,2 B,2 C2 D2 E2 | F3 C D3 F C2 C/4B,/4C/4B,/4A,/B,/ | A,F,G,A, B,CA,B, C=B,A,G, | %4
 C=B,CD EGFG ^C2 A,2 | D2 D,E, F,G,E,F, G,^F,E,D, | G,A,G,F, E,G,F,E, D,C, C2 | %7
 F,E,D,C, =B,,A,, C,2 G,2 G,,2 | C,4 G,,2 C,4- C, z | z G, A,2 B,2 C2 D2 E2 | %10
 F3 C D3 F C2 C/4B,/4C/4B,/4A,/B,/ | A,F,G,A, B,CA,B, C=B,A,G, | C=B,CD EGFG ^C2 A,2 | %13
 D2 D,E, F,G,E,F, G,^F,E,D, | G,A,G,F, E,G,F,E, D,C, C2 | F,E,D,C, =B,,A,, C,2 G,2 G,,2 | %16
 C,4 G,,2 C,4- C, z | z2 D,2 E,2 F,2 G,2 E,2 | F,12 | B,F,G,A, B,D,E,C ^F,A,G,A, | %20
 G,/4^F,/4G,/4F,/4G,/4F,/4G,/4F,/4 D,2 G,2 C,2 D,2 D,,2 | G,,D,E,^F, G,B,A,B, CB,A,G, | %22
 D2 D,2- D,F,E,F, G,F,E,D, | A,B,A,G, F,A,B,C D_EDC | B,DEF G2 D,2 E,2 F,2 | %25
 C,E,D,E, F,E,D,C, B,,A,,G,,F,, | B,,4- B,,C,D,C, B,,A,,G,,F,, | E,,C,D,E, F,2 B,,2 C,2 C,,2 | %28
 z2 A,,2 C,2 F,4- F, z | z2 D,2 E,2 F,2 G,2 E,2 | F,12 | B,F,G,A, B,D,E,C ^F,A,G,A, | %32
 G,/4^F,/4G,/4F,/4G,/4F,/4G,/4F,/4 D,2 G,2 C,2 D,2 D,,2 | G,,D,E,^F, G,B,A,B, CB,A,G, | %34
 D2 D,2- D,F,E,F, G,F,E,D, | A,B,A,G, F,A,B,C D_EDC | B,DEF G2 D,2 E,2 F,2 | %37
 C,E,D,E, F,E,D,C, B,,A,,G,,F,, | B,,4- B,,C,D,C, B,,A,,G,,F,, | E,,C,D,E, F,2 B,,2 C,2 C,,2 | %40
 z2 A,,2 C,2 F,4- F, z |] %41
V:3
 x | F,12 | x12 | x12 | x12 | x12 | x12 | x12 | z2 C,,4- C,,4- C,, z | F,12 | x12 | x12 | x12 | %13
 x12 | x12 | x12 | z2 C,,4- C,,4- C,, x | C,12 | x12 | x12 | x12 | x12 | x12 | x12 | x12 | x12 | %26
 x12 | x12 | F,,6- F,,4- F,, z | C,12 | x12 | x12 | x12 | x12 | x12 | x12 | x12 | x12 | x12 | x12 | %40
 F,,6- F,,4- F,, x |] %41
V:4
 x | x12 | x12 | x12 | x12 | x12 | x12 | x12 | z6 G4- G z | x12 | x12 | x12 | x12 | x12 | x12 | %15
 x12 | z6 G4- G x | x12 | z2 z F F/4_E/4F/4E/4F/4E/4F/4E/4 F/4E/4F/4E/4 D EG F2- | F2 z2 B4 B4 | %20
 A4 G4 ^F4 | G6 z2 z4 | x12 | x12 | x12 | x12 | x12 | G4 F4 E4 | z6 C4- C z | x12 | %30
 z2 z F F/4_E/4F/4E/4F/4E/4F/4E/4 F/4E/4F/4E/4 D EG F2- | F2 z2 B4 B4 | A4 G4 ^F4 | G6 z2 z4 | %34
 x12 | x12 | x12 | x12 | x12 | G4 F4 E4 | z6 C4- C x |] %41
V:5
 x | x12 | x12 | x12 | x12 | x12 | x12 | x12 | z6 E4- E z | x12 | x12 | x12 | x12 | x12 | x12 | %15
 x12 | z6 E4- E x | x12 | x12 | x12 | x12 | x12 | x12 | x12 | x12 | x12 | x12 | x12 | %28
 z6 A,4- A, z | x12 | x12 | x12 | x12 | x12 | x12 | x12 | x12 | x12 | x12 | x12 | z6 A,4- A, x |] %41

